svg/cal.svg

<?xml version="1.0" encoding="UTF-8"?>
<svg xmlns="http://www.w3.org/2000/svg" xmlns:xlink="http://www.w3.org/1999/xlink" width="32" height="32" viewBox="0 0 32 32">
<path fill-rule="nonzero" fill="rgb(95.686275%, 26.274511%, 21.176471%)" fill-opacity="1" d="M 25.921875 2.976562 L 25.921875 5.054688 L 22.273438 5.054688 L 22.273438 2.976562 L 9.726562 2.976562 L 9.726562 5.054688 L 6.078125 5.054688 L 6.078125 2.976562 L 1.921875 2.976562 L 1.921875 8.703125 L 30.078125 8.703125 L 30.078125 2.976562 Z M 25.921875 2.976562 "/>
<path fill-rule="nonzero" fill="rgb(81.176472%, 84.705883%, 86.274511%)" fill-opacity="1" d="M 6.078125 8.703125 L 1.921875 8.703125 L 1.921875 31.105469 L 30.078125 31.105469 L 30.078125 8.703125 Z M 6.078125 8.703125 "/>
<path fill-rule="nonzero" fill="rgb(90.980393%, 90.980393%, 90.980393%)" fill-opacity="1" d="M 6.078125 0.894531 L 9.726562 0.894531 L 9.726562 5.054688 L 6.078125 5.054688 Z M 22.273438 0.894531 L 25.921875 0.894531 L 25.921875 5.054688 L 22.273438 5.054688 Z M 22.273438 0.894531 "/>
<path fill-rule="nonzero" fill="rgb(56.470591%, 64.313728%, 68.235296%)" fill-opacity="1" d="M 6.078125 12.734375 L 9.695312 12.734375 L 9.695312 16.320312 L 6.078125 16.320312 Z M 11.488281 12.734375 L 15.105469 12.734375 L 15.105469 16.320312 L 11.488281 16.320312 Z M 16.894531 12.734375 L 20.511719 12.734375 L 20.511719 16.320312 L 16.894531 16.320312 Z M 22.304688 12.734375 L 25.921875 12.734375 L 25.921875 16.320312 L 22.304688 16.320312 Z M 6.078125 18.144531 L 9.695312 18.144531 L 9.695312 21.761719 L 6.078125 21.761719 Z M 11.488281 18.144531 L 15.105469 18.144531 L 15.105469 21.761719 L 11.488281 21.761719 Z M 16.894531 18.144531 L 20.511719 18.144531 L 20.511719 21.761719 L 16.894531 21.761719 Z M 22.304688 18.144531 L 25.921875 18.144531 L 25.921875 21.761719 L 22.304688 21.761719 Z M 6.078125 23.519531 L 9.695312 23.519531 L 9.695312 27.136719 L 6.078125 27.136719 Z M 11.488281 23.519531 L 15.105469 23.519531 L 15.105469 27.136719 L 11.488281 27.136719 Z M 16.894531 23.519531 L 20.511719 23.519531 L 20.511719 27.136719 L 16.894531 27.136719 Z M 22.304688 23.519531 L 25.921875 23.519531 L 25.921875 27.136719 L 22.304688 27.136719 Z M 22.304688 23.519531 "/>
</svg>

<svg role="img" viewBox="0 0 32 32" xmlns="http://www.w3.org/2000/svg"><path d="M25.922 2.977v2.078h-3.649V2.977H9.727v2.078H6.078V2.977H1.922v5.726h28.156V2.977Zm0 0" fill="rgb(95.686275%, 26.274511%, 21.176471%)"/><path d="M6.078 8.703H1.922v22.402h28.156V8.703Zm0 0" fill="rgb(81.176472%, 84.705883%, 86.274511%)"/><path d="M6.078.895h3.649v4.16H6.078Zm16.195 0h3.649v4.16h-3.649Zm0 0" fill="rgb(90.980393%, 90.980393%, 90.980393%)"/><path d="M6.078 12.734h3.617v3.586H6.078Zm5.41 0h3.617v3.586h-3.617Zm5.407 0h3.617v3.586h-3.617Zm5.41 0h3.617v3.586h-3.617Zm-16.227 5.41h3.617v3.618H6.078Zm5.41 0h3.617v3.618h-3.617Zm5.407 0h3.617v3.618h-3.617Zm5.41 0h3.617v3.618h-3.617ZM6.078 23.52h3.617v3.617H6.078Zm5.41 0h3.617v3.617h-3.617Zm5.407 0h3.617v3.617h-3.617Zm5.41 0h3.617v3.617h-3.617Zm0 0" fill="rgb(56.470591%, 64.313728%, 68.235296%)"/></svg>
